lib/logo_tmp/nrk-logo-nrk-p3-on-dark.svg

<svg width="59" height="24" viewBox="0 0 59 24" fill="none" xmlns="http://www.w3.org/2000/svg">
<path d="M46.476 6H42.7748C42.7748 6 44.8779 9.45256 44.9016 9.49602C44.9809 9.59585 45.0252 9.71897 45.0277 9.84643C45.0302 9.97388 44.9908 10.0986 44.9155 10.2015L42.7748 13.7105H46.4765C46.4765 13.7105 48.2616 10.7915 48.5057 10.3863C48.6215 10.2311 48.6833 10.0422 48.6815 9.84849C48.6797 9.65482 48.6145 9.46708 48.4959 9.314C48.2326 8.8656 48.232 8.8659 46.476 6Z" fill="#FFE100"/>
<path d="M42.2965 6.00004H39V17.9933H42.2965V6.00004Z" fill="#FFE100"/>
<path d="M58.0693 7.98689C57.9449 7.77468 56.8433 6 56.8433 6H48.9206L50.6512 8.90286H54.8242L53.1029 11.7247L55.0217 14.9487L53.1698 17.9924H56.552C57.0958 17.1029 57.9088 15.727 58.0787 15.4451C58.1952 15.2893 58.2573 15.0995 58.2555 14.905C58.2537 14.7105 58.1881 14.5219 58.0688 14.3683C57.8995 14.0793 56.9937 12.6427 56.4524 11.7583C56.4524 11.7583 57.9088 9.34505 58.0787 9.06314C58.1951 8.90744 58.2572 8.71786 58.2556 8.52345C58.2539 8.32903 58.1885 8.14054 58.0693 7.98689Z" fill="#FFE100"/>
<path d="M50.4486 12.1144C49.9271 12.9661 49.0552 14.3934 48.8918 14.6716C48.7768 14.8196 48.7136 15.0013 48.7118 15.1887C48.7101 15.3761 48.7699 15.5588 48.8822 15.7089C49.0458 15.9804 49.9246 17.419 50.4486 18.2769C50.9723 17.4199 51.8514 15.9812 52.0148 15.7089C52.1269 15.5588 52.1868 15.3761 52.1851 15.1887C52.1834 15.0013 52.1203 14.8197 52.0055 14.6716C51.8421 14.3934 50.9698 12.9661 50.4486 12.1144Z" fill="#FFE100"/>
<path d="M0 18.0056V6.00671H3.93719V18.0056H0ZM9.29381 7.91639L11.5581 18.0056H7.24917L4.54549 6.00671H6.96218C7.51635 5.99951 8.05406 6.19486 8.4745 6.556C8.89562 6.902 9.18495 7.38231 9.29381 7.91639ZM12.1495 18.0056V6.00671H16.0867V18.0056H12.1495ZM19.0605 10.5697C18.6362 10.5739 18.2188 10.4628 17.8525 10.2486C17.4912 10.0397 17.1911 9.73957 16.9823 9.37821C16.7678 9.01195 16.6568 8.59438 16.661 8.16993C16.6561 7.74808 16.7672 7.33299 16.9823 6.97004C17.1933 6.61261 17.4931 6.31571 17.8525 6.10813C18.2189 5.89412 18.6362 5.78313 19.0605 5.787C19.4822 5.78246 19.8971 5.89354 20.2602 6.10813C20.616 6.31753 20.9127 6.61418 21.122 6.97004C21.3368 7.3331 21.4479 7.74811 21.4433 8.16993C21.4473 8.59434 21.3363 9.01184 21.122 9.37821C20.9149 9.73799 20.6179 10.0379 20.2602 10.2486C19.8971 10.4636 19.4819 10.5747 19.0599 10.5697H19.0605ZM22.0516 18.0056V6.00671H25.9892V18.0056H22.0516ZM30.9737 12.5638C30.9848 12.5755 31.0693 12.7135 31.2272 12.9779C31.3851 13.2423 31.5906 13.5803 31.8439 13.9919C32.0974 14.4033 32.3649 14.8399 32.6463 15.3016C32.9278 15.7634 33.1926 16.2 33.4408 16.6114C33.6881 17.0228 33.9697 17.4875 34.2857 18.0056H29.9598C29.6893 17.5662 29.4441 17.1691 29.2245 16.8142C29.0048 16.4593 28.7713 16.0762 28.5238 15.665C28.2758 15.2541 28.0306 14.8542 27.7882 14.4651C27.5458 14.076 27.3375 13.7352 27.1633 13.4427C26.9883 13.1499 26.8671 12.9527 26.7997 12.8512C26.6325 12.5991 26.5336 12.3079 26.5127 12.0062C26.5294 11.7166 26.6226 11.4366 26.7828 11.1947C26.8504 11.0821 26.9743 10.882 27.1545 10.5947C27.3348 10.3074 27.546 9.96667 27.7882 9.57234C28.0304 9.17801 28.2756 8.77522 28.5238 8.36399C28.772 7.95276 29.0056 7.56685 29.2245 7.20632C29.4445 6.84617 29.6897 6.4462 29.9598 6.00643H34.2857L30.9396 11.4651C30.8361 11.6272 30.7777 11.814 30.7706 12.0062C30.7818 12.2079 30.8522 12.4019 30.9731 12.5638H30.9737Z" fill="white"/>
</svg>

<svg xmlns="http://www.w3.org/2000/svg" viewBox="0 0 59 24"><path fill="#FFE100" d="M46.476 6h-3.701s2.103 3.453 2.127 3.496a.582.582 0 0 1 .014.705l-2.141 3.51h3.702s1.785-2.92 2.029-3.325a.886.886 0 0 0-.01-1.072c-.263-.448-.264-.448-2.02-3.314ZM42.297 6H39v11.993h3.297V6ZM58.07 7.987A324.263 324.263 0 0 0 56.842 6h-7.922l1.73 2.903h4.173l-1.721 2.822 1.919 3.224-1.852 3.043h3.382c.544-.89 1.357-2.265 1.527-2.547a.888.888 0 0 0-.01-1.077c-.17-.289-1.075-1.725-1.617-2.61l1.627-2.695a.89.89 0 0 0-.01-1.076ZM50.449 12.114c-.522.852-1.394 2.28-1.557 2.558a.856.856 0 0 0-.01 1.037c.164.271 1.043 1.71 1.567 2.568.523-.857 1.402-2.296 1.566-2.568a.856.856 0 0 0-.01-1.037 393.427 393.427 0 0 0-1.556-2.558Z"/><path fill="#fff" d="M0 18.006v-12h3.937v12H0Zm9.294-10.09 2.264 10.09H7.25l-2.704-12h2.417a2.276 2.276 0 0 1 1.513.55c.42.346.71.826.819 1.36Zm2.855 10.09v-12h3.938v12h-3.938Zm6.912-7.436a2.382 2.382 0 0 1-2.4-2.4 2.301 2.301 0 0 1 .321-1.2 2.41 2.41 0 0 1 3.278-.862c.356.21.653.506.862.862.215.363.326.778.321 1.2a2.35 2.35 0 0 1-.321 1.208 2.4 2.4 0 0 1-.862.87 2.302 2.302 0 0 1-1.2.322Zm2.99 7.436v-12h3.938v12h-3.937Zm8.923-5.442c.01.011.095.15.253.414s.364.602.617 1.014a315.936 315.936 0 0 1 1.597 2.62c.247.41.529.876.845 1.394H29.96c-.27-.44-.516-.837-.736-1.192-.22-.355-.453-.738-.7-1.149-.248-.41-.493-.81-.736-1.2-.242-.389-.45-.73-.625-1.022-.175-.293-.296-.49-.363-.592a1.747 1.747 0 0 1-.287-.845c.016-.29.11-.57.27-.811.067-.113.191-.313.371-.6a182.106 182.106 0 0 0 1.37-2.23l.7-1.159.736-1.2h4.326l-3.346 5.46a1.08 1.08 0 0 0-.17.54c.012.202.082.396.203.558Z"/></svg>
